X: 22
T: Morpeth Rant
R: reel, hornpipe
M: C
L: 1/8
N: Seldom heard nowadays, this is the old version of the tune the Morpeth Rant,
N: in the original key, though with a few quirks of its own here.
Z: 2010 John Chambers <jc:trillian.mit.edu>
B: Anonymous manuscript tune book (1800-1840) p.44
F: http://www.asaplive.com/archive/browse_by_collection.asp
N: The asaplive.com web site is complex, and links to its files don't usually work.
K: Bb
FGA | B2FE DB,DF | GEGB AFGc | B2gf edcB | A2c2 c2e>c | B2FE DB,DF |
GEGB AFAc | Bbag fedc | B2B2 B2 :||: ((3fga) | bfe[dB] BAGF |fdec BAGF |
egec dfdB | A2c2 c2((3FGA) | GEGB edcB | AFAc fedc | Bbag fedc | B2B2 B2 :|


%%sep 5 1 500

